!!!OTL: Nomeva
!!!XEN: The Wasp
!!!CNT: African -- sub-Saharan -- Xhosa
**kern
*k[f#c#]
*M2/2
*MM126
4dd
4dd
=1
4dd
8a
8a;
6b
6b
6b
=2
8a
[8a
4a]
4dd
4dd
=3
4dd
8a
8a;
6b
6b
6b
=4
8a
8a
4r
!! Repeat from the beginning.
4dd
4dd
=5
4dd
8a
8a;
6b
6b
6b
=6
8a
[8a
4a]
4dd
4dd
=7
4dd
8a
8a;
6b
6b
6b
=8
8a
8a
4r
!! Continuing.
8r
8a
8a
8a
=9
8ff#
8ff#
8ff#
[8gg
8gg]
8gg
4a
=10
4gg
4r
8r
8a
8a
8a
=11
8gg
8gg
8gg
[8a
8a]
8a
4gg
=12
2ff#
8r
8a
8a
8a
=13
8ff#
8ff#
8ff#
[8gg
8gg]
8gg
4a
=14
4gg
4r
8r
8a
8a
8a
=15
8gg
8gg
8gg
[8a
8a]
8a
4gg
=16
4ff#
4r
8ee
8ee
4dd
=17
8b
8b
8r
8dd
8ee
8ee
4dd
=18
8dd
8a
8r
8ee
4ee
4b
=19
8a
8a
8r
8ee
4ee
4b
=20
8dd
8dd
8r
8ee
4ee
4dd
=21
8b
8b
8r
8ee
4ee
4b
=22
8dd
8a
8r
8ee
4ee
4dd
=23
8b
8a
8r
8ee
4ee
4b
=24
8dd
8dd
4r
6dd
6ee
6ff#
=25
4.aa
8gg
8aa
8aa
4ee
=26
8dd
8dd
4r
8aa
8aa
4aa
=27
4.aa
8gg
8aa
8aa
4ee
=28
8dd
8dd
4r
6dd
6ee
6ff#
=29
4.aa
8gg
8aa
8aa
4ee
=30
8dd
8dd
4r
8aa
8aa
4aa
=31
4.aa
8gg
8aa
8aa
4ee
=32
8dd
8dd
8dd
8dd
4r
8dd
8dd
!! Repeat the last four bars.
=33
2.ee
4b
=34
4a
2.a
=35
4r
4a
4b
8a
8a
=36
4dd
2dd
8dd
8dd
!! Repeating.
=37
2.ee
4b
=38
4a
2.a
=39
4r
4a
4b
8a
8a
=40
4dd
2dd
8dd
8dd
==
*-
!!!OPR: Miriam Makeba, "The World of African Song"
!!!PPP: Chicago
!!!PPR: Quadrangle Press (12 East Delaware Place)
!!!PDT: 1971///
!!!PPG: 105
!!!ENC: David Huron
!!!EMD: 1998/9/29/ Paul von Hippel updated this file in the following ways:
!!!EMD:  (1) changed the representation of slurs from curly braces to parentheses 
!!!EMD:  (2) changed freeform comments into reference records and tandem interpretations
!!!EMD:  (3) changed final barline from triple (===) to double (==)
!!!EMD:  (4) added key signature from printed source
!!!EEV: Version 2.0
